X:219
T:Wayfaring Stranger
Z:Jack Campin, http://www.campin.me.uk/
F:Jack Campin's Nine-Note Tunebook
% last edit 03-02-2013
M:4/4
L:1/4
Q:1/4=120
K:F
DDA|A4-|A G A G|FD3-|D \
DDA|G4-|G D F G|A4- |A
DDA|A4-|A G A G|FD3-|D \
DDA|G4-|G F D C|D4- |D||
AAc|d4-|d A c d|AG3-|G \
AAc|d4-|d c d c|A4- |A
ABc|A4-|A F G A|FD3-|D \
DDA|G4-|G F D C|D4- |D|]

